ufans-frontend-package/public/assets/images/new-home/icon/sent-tip-1.svg

<svg width="376" height="513" viewBox="0 0 376 513" fill="none" xmlns="http://www.w3.org/2000/svg">
<path d="M160.29 330.101C160.29 341.002 172.834 350.229 187.682 350.229C214.541 350.229 236.386 368.821 236.386 391.69C236.386 411.423 220.077 427.914 198.349 432.063V444.639C198.349 450.538 193.581 455.306 187.682 455.306C181.783 455.306 177.015 450.538 177.015 444.639V432.063C155.277 427.903 138.957 411.413 138.957 391.69C138.957 385.791 143.735 381.023 149.623 381.023C155.511 381.023 160.29 385.791 160.29 391.69C160.29 402.591 172.834 411.807 187.682 411.807C202.519 411.807 215.053 402.602 215.053 391.69C215.053 380.778 202.53 371.562 187.682 371.562C160.813 371.562 138.957 352.97 138.957 330.101C138.957 310.367 155.277 293.877 177.015 289.727V278.698C177.015 272.799 181.794 268.031 187.682 268.031C193.57 268.031 198.349 272.799 198.349 278.698V289.727C220.077 293.887 236.386 310.378 236.386 330.101C236.386 335.999 231.618 340.767 225.719 340.767C219.821 340.767 215.053 335.999 215.053 330.101C215.053 319.669 203.565 310.89 189.591 310.133C188.951 310.261 188.365 310.517 187.682 310.517C186.999 310.517 186.413 310.261 185.773 310.133C171.789 310.901 160.29 319.679 160.29 330.101V330.101ZM375.362 407.679C375.863 461.855 334.775 510.645 287.437 512.074C287.33 512.074 287.213 512.074 287.117 512.074H86.7754C27.4901 512.074 0.23674 458.037 0.0020737 407.829C-0.46726 307.914 78.8287 187.018 137.826 147.391C106.647 121.29 69.7194 68.8527 70.2101 42.3673C70.6794 32.4473 72.3327 22.09 81.1007 18.0686C90.4341 13.7913 98.9461 20.458 106.445 26.314C111.373 30.1646 118.765 35.946 122.594 35.1353C124.791 34.6446 127.661 31.2313 130.274 26.026C130.562 25.45 130.903 24.9166 131.287 24.4046C144.695 6.55931 155.063 -0.768685 165.719 0.0633146C178.669 1.01265 185.367 13.322 191.853 25.226C196.055 32.9486 200.397 40.9273 206.274 46.794C206.882 47.3913 207.373 47.818 207.746 48.106C209.453 46.6767 212.194 43.338 214.114 40.9913C224.589 28.234 244.087 4.46865 285.186 20.8953C289.239 22.506 291.895 26.442 291.895 30.8046C291.895 55.0713 277.378 89.162 259.469 116.714C278.381 110.741 298.69 106.698 312.034 106.698C347.021 106.698 350.807 127.669 350.807 136.693C350.807 150.474 343.917 173.599 297.762 173.599C286.743 173.599 274.839 172.255 263.586 170.325C316.898 222.698 374.573 322.645 375.362 407.679V407.679ZM312.034 128.031C291.106 128.031 262.957 137.109 245.559 144.671C259.938 148.351 280.109 152.266 297.773 152.266C329.485 152.266 329.485 140.543 329.485 136.693C329.474 133.877 329.474 128.031 312.034 128.031V128.031ZM161.399 138.357C161.655 138.517 161.794 138.773 162.029 138.954C162.242 139.061 162.477 139.029 162.679 139.146C177.399 147.37 192.13 147.061 212.29 138.613C212.621 138.463 212.994 138.506 213.357 138.399C235.309 121.514 265.602 70.5166 270.029 38.2393C248.77 32.3726 239.927 43.1673 230.626 54.5166C224.631 61.8233 218.434 69.3647 208.749 69.8447C202.562 70.3033 196.802 67.466 191.202 61.8873C183.138 53.8233 177.815 44.0526 173.122 35.4233C170.295 30.2393 166.029 22.3886 163.767 21.2473C163.917 21.418 159.49 22.5593 148.898 36.5006C143.191 47.466 135.927 54.0153 127.298 55.9567C113.666 59.018 101.922 49.8446 93.3247 43.1353C92.8021 42.7193 92.2154 42.2713 91.6181 41.802C91.5861 42.2073 91.5647 42.634 91.5434 43.082C91.1914 61.8446 130.839 119.295 161.399 138.357V138.357ZM354.029 407.871C353.314 329.013 297.858 236.501 250.711 188.266C257.303 199.829 265.89 212.191 276.962 223.242C281.143 227.413 281.143 234.154 276.983 238.325C274.903 240.415 272.162 241.461 269.431 241.461C266.701 241.461 263.97 240.415 261.901 238.346C243.831 220.309 231.607 199.551 223.789 182.805C219.703 193.311 213.954 204.863 205.975 215.029C202.327 219.69 195.629 220.49 190.999 216.831C186.37 213.194 185.559 206.485 189.197 201.866C198.903 189.503 204.738 174.122 208.045 162.773C189.229 168.362 172.983 167.551 157.41 160.373C108.557 186.911 20.8661 308.554 21.3354 407.722C21.5274 447.711 42.0821 490.741 86.7754 490.741H286.946C325.773 489.461 354.381 445.983 354.029 407.871V407.871Z" fill="#6661E7"/>
</svg>

<svg xmlns="http://www.w3.org/2000/svg" width="375.367" height="512.074" viewBox="0 0 375.367 512.074">
  <path id="sent-tip-1" d="M160.29,330.1c0,10.9,12.544,20.128,27.392,20.128,26.859,0,48.7,18.592,48.7,41.461,0,19.733-16.309,36.224-38.037,40.373v12.576a10.667,10.667,0,0,1-21.334,0V432.063c-21.738-4.16-38.058-20.65-38.058-40.373a10.666,10.666,0,1,1,21.333,0c0,10.9,12.544,20.117,27.392,20.117s27.371-9.205,27.371-20.117-12.523-20.128-27.371-20.128c-26.869,0-48.725-18.592-48.725-41.461,0-19.734,16.32-36.224,38.058-40.374V278.7a10.667,10.667,0,0,1,21.334,0v11.029c21.728,4.16,38.037,20.651,38.037,40.374a10.667,10.667,0,0,1-21.333,0c0-10.432-11.488-19.211-25.462-19.968a4.937,4.937,0,0,1-3.818,0c-13.984.768-25.483,9.546-25.483,19.968Zm215.072,77.578c.5,54.176-40.587,102.966-87.925,104.395H86.775C27.49,512.074.237,458.037,0,407.829c-.469-99.915,78.827-220.811,137.824-260.438C106.647,121.29,69.719,68.853,70.21,42.367c.469-9.92,2.123-20.277,10.891-24.3,9.333-4.277,17.845,2.389,25.344,8.245,4.928,3.851,12.32,9.632,16.149,8.821,2.2-.491,5.067-3.9,7.68-9.109a10.585,10.585,0,0,1,1.013-1.621C144.7,6.559,155.063-.769,165.719.063c12.95.949,19.648,13.259,26.134,25.163,4.2,7.723,8.544,15.7,14.421,21.568a17.037,17.037,0,0,0,1.472,1.312,66.871,66.871,0,0,0,6.368-7.115c10.475-12.757,29.973-36.523,71.072-20.1a10.662,10.662,0,0,1,6.709,9.909c0,24.267-14.517,58.357-32.426,85.909,18.912-5.973,39.221-10.016,52.565-10.016,34.987,0,38.773,20.971,38.773,29.995,0,13.781-6.89,36.906-53.045,36.906a207.252,207.252,0,0,1-34.176-3.274C316.9,222.7,374.573,322.645,375.362,407.679ZM312.034,128.031c-20.928,0-49.077,9.078-66.475,16.64,14.379,3.68,34.55,7.6,52.214,7.6,31.712,0,31.712-11.723,31.712-15.573-.011-2.816-.011-8.662-17.451-8.662ZM161.4,138.357c.256.16.4.416.63.6.213.107.448.075.65.192,14.72,8.224,29.451,7.915,49.611-.533a8.153,8.153,0,0,1,1.067-.214c21.952-16.885,52.245-67.882,56.672-100.16-21.259-5.867-30.1,4.928-39.4,16.277-6,7.307-12.192,14.848-21.877,15.328-6.187.459-11.947-2.379-17.547-7.957-8.064-8.064-13.387-17.835-18.08-26.464-2.827-5.184-7.093-13.035-9.355-14.176.15.171-4.277,1.312-14.869,15.253-5.707,10.965-12.971,17.515-21.6,19.456-13.632,3.061-25.376-6.112-33.973-12.821-.523-.416-1.109-.864-1.707-1.333-.032.405-.053.832-.075,1.28-.352,18.763,39.3,76.213,69.856,95.275Zm192.63,269.514c-.715-78.858-56.171-171.37-103.318-219.6a164.341,164.341,0,0,0,26.251,34.976,10.665,10.665,0,1,1-15.061,15.1c-18.07-18.037-30.294-38.795-38.112-55.541-4.086,10.506-9.835,22.058-17.814,32.224A10.663,10.663,0,0,1,189.2,201.866c9.706-12.363,15.541-27.744,18.848-39.093-18.816,5.589-35.062,4.778-50.635-2.4C108.557,186.911,20.866,308.554,21.335,407.722c.192,39.989,20.747,83.019,65.44,83.019H286.946c38.827-1.28,67.435-44.758,67.083-82.87Z" fill="#e44499"/>
</svg>
